Sources/FrostedUI/Resources/Icons.xcassets/roundedArrowAngleLeft32.imageset/rounded-arrow-angle-left-32.svg

<svg width="32" height="32" viewBox="0 0 32 32" fill="none" xmlns="http://www.w3.org/2000/svg" data-fui-icon="true">
  <g clip-path="url(#clip0_6203_156)">
    <path
      fill-rule="evenodd"
      clip-rule="evenodd"
      d="M20.5027 31.9998C26.8544 31.9998 32.0036 26.8505 32.0037 20.4988C32.0035 14.1472 26.8543 8.9978 20.5027 8.9978H2.54076L10.2214 1.27905C10.5135 0.98559 10.5126 0.510719 10.2195 0.218506C9.92597 -0.0735664 9.45113 -0.0728302 9.15892 0.220459L0.21947 9.20288C-0.0714628 9.49548 -0.071595 9.96896 0.21947 10.2615L9.15892 19.2439C9.45107 19.5369 9.92603 19.5376 10.2195 19.2458C10.5128 18.9537 10.5134 18.4788 10.2214 18.1853L2.57201 10.4978H20.5027C26.0259 10.4978 30.5035 14.9756 30.5036 20.4988C30.5036 26.0221 26.026 30.4998 20.5027 30.4998H17.5847C17.1708 30.5 16.8349 30.8358 16.8347 31.2498C16.8348 31.6638 17.1707 31.9996 17.5847 31.9998H20.5027Z"
      fill="currentColor"
    />
  </g>
  <defs>
    <clipPath id="clip0_6203_156"><path fill="currentColor" d="M0 0H32V32H0z" /></clipPath>
  </defs>
</svg>

<svg xmlns="http://www.w3.org/2000/svg" width="32" height="32" fill="none" data-fui-icon="true" viewBox="0 0 32 32"><g clip-path="url(#a)"><path fill="currentColor" fill-rule="evenodd" d="M20.503 32c6.351 0 11.5-5.15 11.5-11.501 0-6.352-5.149-11.501-11.5-11.501H2.54l7.68-7.719A.75.75 0 0 0 9.16.22L.219 9.203a.75.75 0 0 0 0 1.059l8.94 8.982a.75.75 0 0 0 1.062-1.059l-7.649-7.687h17.93c5.524 0 10.002 4.478 10.002 10 0 5.524-4.478 10.002-10.001 10.002h-2.918a.75.75 0 0 0 0 1.5z" clip-rule="evenodd"/></g><defs><clipPath id="a"><path fill="currentColor" d="M0 0h32v32H0z"/></clipPath></defs></svg>
